X:1
T:Title
%%score { ( 1 4 ) | ( 2 3 ) }
L:1/8
M:4/4
K:Eb
V:1 treble nm="Grand Piano"
V:4 treble 
V:2 bass 
V:3 bass 
V:1
 z4 z2[Q:1/4=100] [GB]A | G2 G2 G2 [GB]2 | [GB][FA] [EG]2 [GB]2 [EG]2 | [DF]2 [DF]2 [DF]2 [EG]2 | %4
 [FA][EG] [DF]2 [EG]2 [GB]2 | G2 G2 G2 B2 | cB G2 [GB]2 [GB]2 | [Ac]2 [Ad]2 [Ge]2 [B,EG]2 | %8
[M:7/8] B z z z z z2 |[M:1/4] [EGB]2 |[M:4/4] .[Ac]2 [Ac]2 .[Ac]2 [Ac]2 | %11
 [Ac][GB] [EG]2 [GB]2 [GB]2 | [Ge]2 [Bd]2 .[CAc]2 [GB]2 | %13
[M:9/8] [Ac][GB][EG]- [EG] [DF]2- [DF] [DB]2 |[M:4/4] G2 G2 G2 [GB]2 | %15
[M:9/8] [Ac][GB][EG]- [EG] [Ge]2- [Ge] [GB]2 |[M:4/4] [Ac]2 [Ad]2 [Ge]2 [B,EG]2 | %17
[M:7/8] B z z z z z2 |] %18
V:2
 z4 z2 z F | [E,B,E]2 [E,B,E]2 [E,B,E]2 [E,B,]2 | [E,B,]2 [E,B,]2 [E,B,]2 [E,B,]2 | %3
 [B,,B,]2 [B,,B,]2 [B,,B,]2 [B,,B,]2 | [B,,B,]2 [B,,B,]2 [E,B,]2 [E,E]2 | %5
 [E,B,E]2 [E,B,E]2 [E,B,E]2 [E,G,E]2 | [E,E]-[E,G,E] [E,B,E]2 [E,E]2 [E,E]2 | %7
 [A,E]2 [F,B,]2 [E,B,]2 E,2 |[M:7/8] z A B,,2 E,3 |[M:1/4] E,2 | %10
[M:4/4] [A,E]2 [A,E]2 [A,E]2 [A,E]2 | [E,E]2 [E,B,]2 [E,E]2 [E,E]2 | [E,B,]2 [E,B,]2 z D [E,E]2 | %13
[M:9/8] [E,E]2 [E,B,]- [E,B,] [B,,B,]2- [B,,B,] [B,,B,]2 | %14
[M:4/4] [E,B,E]2 [E,B,E]2 [E,B,E]2 [E,E]2 |[M:9/8] [E,E]2 [E,B,]- [E,B,] [E,B,]2- [E,B,] [E,E]2 | %16
[M:4/4] [A,E]2 [F,B,]2 [E,B,]2 E,2 |[M:7/8] z A B,,2 E,3 |] %18
V:3
 z4 z2 [E,B,]2 | x8 | x8 | x8 | x8 | x8 | .A,2 z2 z4 | x8 |[M:7/8] B,,2 z z z z2 |[M:1/4] x2 | %10
[M:4/4] x8 | x8 | z4 E,2 z2 |[M:9/8] x9 |[M:4/4] x8 |[M:9/8] x9 |[M:4/4] x8 | %17
[M:7/8] B,,2 z z z z2 |] %18
V:4
 x8 | x8 | x8 | x8 | x8 | x8 | x8 | x8 |[M:7/8] [B,D]2 [A,DF]2 [G,E]3 |[M:1/4] x2 |[M:4/4] x8 | %11
 x8 | x8 |[M:9/8] x9 |[M:4/4] x8 |[M:9/8] x9 |[M:4/4] x8 |[M:7/8] [B,D]2 [A,DF]2 [G,E]3 |] %18

